!!!!SEGMENT: pl-gd--ee-1638--003-001_marenzio-luca--madrigali-a-quatro-voci-non-vidi-mai.krn
!!!cenid: 15xx:975
!!!COM: Marenzio, Luca
!!!COM-rismid: pe30003955
!!!CDT: ~1553-1599/08/22
!!!CNT: Italian
!!!GTL: Madrigali a quatro voci
!!!OTL: Non vidi mai
!!!OMV: 001
!!!PDT: 1587
!!!AGN:
!!!SMS-siglum: PL-GD
!!!SMS-shelfmark: Ee 1638
!!!SMS-shelfwork: 003-001 G
!!!SMS-variant:
!!!SMS-altvar:
!!!NIFC-rismid: 990039322
!!!URL-scan: https://repozytorium.nifc.pl/islandora/object/pl-gd%3A57883/datastream/PDF/view
!!!ONB-nifc: UWAGA: zbiór na stronach: Canto: s. 637-653, Alto: s. do 486-501, Tenore: s. do 334-349, Bassus: s. do 182-197. Uwaga: utwory podzielone wg tytułów w spisach treści dostępnych na końcu każdej księgi głosowej.
!!!AIN: 1 alto 1 bass 1 soprn 1 tenor
!!!key:
**kern	**text	**kern	**text	**kern	**text	**kern	**text
*part4	*part4	*part3	*part3	*part2	*part2	*part1	*part1
*staff4	*staff4	*staff3	*staff3	*staff2	*staff2	*staff1	*staff1
*I"BASSO	*	*I"TENORE	*	*I"ALTO	*	*I"CANTO	*
*I'B.	*	*I'T.	*	*I'A.	*	*I'C.	*
*Ibass	*	*Itenor	*	*Ialto	*	*Isoprn	*
*ICvox	*	*ICvox	*	*ICvox	*	*ICvox	*
*IG	*	*	*	*	*	*	*
*clefF4	*	*clefC4	*	*clefC3	*	*clefC1	*
*k[b-]	*	*k[b-]	*	*k[b-]	*	*k[b-]	*
*F:	*	*F:	*	*F:	*	*F:	*
*M2/1	*	*M2/1	*	*M2/1	*	*M2/1	*
*met(C)	*	*met(C)	*	*met(C)	*	*met(C)	*
=1-	=1-	=1-	=1-	=1-	=1-	=1-	=1-
!LO:TX:b:t=NOn vidi.	!	!	!	!	!	!	!
0r	.	0r	.	2r	.	1g	NOn
.	.	.	.	2g\	NOn	.	.
.	.	.	.	4G/	vi-	1b-	vi-
.	.	.	.	4A/	-di	.	.
.	.	.	.	4B-/	mai	.	.
.	.	.	.	4c/	do-	.	.
=2-	=2-	=2-	=2-	=2-	=2-	=2-	=2-
0r	.	0r	.	4d\	-pò	1a	-di
.	.	.	.	4e\	not-	.	.
.	.	.	.	4f\	-tur-	.	.
.	.	.	.	4d\	-na	.	.
.	.	.	.	8e\	piog-	4g/	mai
.	.	.	.	8d\	.	.	.
.	.	.	.	8c\	.	4cc\	do-
.	.	.	.	8d\	.	.	.
.	.	.	.	8e\	.	4.g/	-pò
.	.	.	.	8f\	.	.	.
.	.	.	.	8g\	.	.	.
.	.	.	.	8e\	.	8g/	not-
=3-	=3-	=3-	=3-	=3-	=3-	=3-	=3-
0r	.	1r	.	4f#X\	.	4a\	-tur-
.	.	.	.	2g\	.	4b-\	-na
.	.	.	.	.	.	2a\	pog-
.	.	.	.	4f#X\	.	.	.
!	!	!	!	!LO:SIC:v:t=custos d	!	!	!
.	.	1G	NOn	1g	-gia	2d/	-gia
!	!	!	!	!LO:LB:g=original	!	!	!
.	.	.	.	.	.	4r	.
.	.	.	.	.	.	4dd\	Non
=4-	=4-	=4-	=4-	=4-	=4-	=4-	=4-
0r	.	1B-	vi-	2r	.	4d/	vi-
.	.	.	.	.	.	4e/	-di
.	.	.	.	2d\	non	4f/	mai
!	!	!	!	!	!	!LO:SIC:v:t=custos a	!
.	.	.	.	.	.	4g/	do-
!	!	!	!	!	!	!LO:LB:g=original	!
.	.	1A	-di	4c/	vi-	4a\	-pò
.	.	.	.	4d\	-di	4b-\	not-
.	.	.	.	4e\	mai	4cc\	-tur-
.	.	.	.	4fny\	do-	4a\	-na
=5-	=5-	=5-	=5-	=5-	=5-	=5-	=5-
0r	.	4G/	mai	4g\	-pò	8b-\	piog-
.	.	.	.	.	.	8a\	.
.	.	4c\	do-	4e\	not-	8g\	.
.	.	.	.	.	.	8a\	.
.	.	4.G/	-pò	4d\	-tur-	8b-\	.
.	.	.	.	.	.	8cc\	.
.	.	.	.	4g\	-na	8dd\	.
!	!	!	!	!	!	!LO:N:acc=#	!
.	.	8G/	not-	.	.	8bn\	.
.	.	4A/	-tur-	4f\	piog-	4cc#X\	.
.	.	4B-\	-na	8e\	.	2dd\	.
.	.	.	.	8d\	.	.	.
.	.	2A/	piog-	2e\	.	.	.
.	.	.	.	.	.	4cc#X\	.
=6-	=6-	=6-	=6-	=6-	=6-	=6-	=6-
2r	.	2D/	-gia	1d	-gia	2.dd\	-gia
2.D/	Gir	2.d\	Gir	.	.	.	.
.	.	.	.	.	.	8ccny\	.
.	.	.	.	.	.	8b-y\	.
.	.	.	.	1r	.	0a	.
4E\	per	4c\	per	.	.	.	.
!	!	!LO:SIC:v:t=custos A	!	!	!	!	!
2F\	l'ae-	2A/	l'ae-	.	.	.	.
!	!	!LO:LB:g=original	!	!	!	!	!
=7-	=7-	=7-	=7-	=7-	=7-	=7-	=7-
4F\	-re	4A/	-re	1r	.	.	.
4G\	ſe-	4B-\	ſe-	.	.	.	.
4A\	-re-	4c\	-re-	.	.	.	.
4F\	-no	4d\	-no	.	.	.	.
4G\	ſtel-	4B-\	ſtel-	2r	.	2r	.
4A\	le er-	4c\	le er-	.	.	.	.
2B-\	-ran-	2d\	-ran-	4r	.	4r	.
.	.	.	.	4d\	E	4f/	E
=8-	=8-	=8-	=8-	=8-	=8-	=8-	=8-
2F\	-ti	2c\	-ti	4.f\	fia(m)-	4.a\	fiam-
.	.	.	.	8g\	-meg-	8b-\	-meg-
!	!	!	!	!	!	!LO:SIC:v:t=custos a	!
4r	.	4r	.	2a\	-giar	2cc\	-giar
!LO:SIC:v:t=custos F	!	!	!	!	!	!LO:LB:g=original	!
4F\	E	4c\	E	.	.	.	.
!LO:LB:g=original	!	!	!	!	!	!	!
4.F\	fiam-	4.A/	fiam-	2r	.	2r	.
8E\	-meg-	8G/	-meg-	.	.	.	.
2D/	-giar	2F/	-giar	2.A/	Gir	2.a\	Gir
=9-	=9-	=9-	=9-	=9-	=9-	=9-	=9-
1r	.	1r	.	.	.	.	.
.	.	.	.	4B-/	per	4g/	per
!	!	!	!	!LO:SIC:v:t=custos c	!	!	!
.	.	.	.	2c/	l'ae-	2e/	l'ae-
!	!	!	!	!LO:LB:g=original	!	!	!
1r	.	1r	.	4c/	-re	4e/	-re
.	.	.	.	4d\	ſe-	4f/	ſe-
.	.	.	.	4e\	-re-	4g/	-re-
.	.	.	.	4c/	-no	4a\	-no
=10-	=10-	=10-	=10-	=10-	=10-	=10-	=10-
1r	.	2r	.	4d\	ſtel-	4f/	ſtel-
.	.	.	.	4e\	le er-	4g/	le er-
.	.	4r	.	1f	-ran-	1a	-ran-
.	.	4F/	E	.	.	.	.
2r	.	4.A/	fiam-	.	.	.	.
.	.	8B-\	-meg-	.	.	.	.
4r	.	2c\	-giar	2e\	-ti	4g/	-ti
4C/	E	.	.	.	.	4e/	e
=11-	=11-	=11-	=11-	=11-	=11-	=11-	=11-
4.D/	fiam-	2B-\	fra	2r	.	4.f/	fia(m)-
8E\	-meg-	.	.	.	.	8g/	-meg-
2F\	-giar	4.A/	la	4r	.	2a\	-giar
.	.	.	.	4c/	E	.	.
!	!	!LO:SIC:v:t=custos F	!	!	!	!	!
.	.	8G/	rug-	.	.	.	.
!	!	!LO:LB:g=original	!	!	!	!	!
2BB-/	fra	2F/	-gia-	4.d\	fiam-	2b-\	fra
.	.	.	.	8e\	-meg-	.	.
4D/	la	2F/	-da	2f\	-giar	4a\	la
4D/	rug-	.	.	.	.	4b-\	rug-
=12-	=12-	=12-	=12-	=12-	=12-	=12-	=12-
2C/	-giad-	4r	.	2e-X\	fra	2cc\	-gia-
.	.	4c\	e'l	.	.	.	.
2BB-/	a e'l	2.f\	gie-	4d\	la	4dd\	da e'l
.	.	.	.	4d\	rug-	2b-\	gie-
1F	gie-	.	.	2c/	-gia-	.	.
.	.	8e\	.	.	.	8a\	.
.	.	8d\	.	.	.	8g\	.
!	!	!	!	!	!	!LO:SIC:v:t=custos g	!
.	.	4c\	.	2f\	da e'l	2a\	.
!	!	!	!	!	!	!LO:LB:g=original	!
.	.	4d\	.	.	.	.	.
=13-	=13-	=13-	=13-	=13-	=13-	=13-	=13-
!	!	!LO:N:acc=#	!	!	!	!	!
1G	-lo	4Bn\	.	4.eny\	gie-	1g	-lo
.	.	2c\	.	.	.	.	.
.	.	.	.	16d\	.	.	.
.	.	.	.	16c\	.	.	.
!	!	!	!	!LO:SIC:v:t=custos c	!	!	!
.	.	.	.	2d\	.	.	.
!	!	!	!	!LO:LB:g=original	!	!	!
!	!	!LO:N:acc=#	!	!	!	!	!
.	.	4Bn\	.	.	.	.	.
4r	.	2c\	-lo	2e\	-lo	4r	.
4c\	Chi	.	.	.	.	4g/	Chi
4B-\	non	2r	.	4r	.	4g/	non
!LO:SIC:v:t=custos G	!	!	!	!	!	!	!
4A\	ha-	.	.	4c/	Chi	4a\	ha-
!LO:LB:g=original	!	!	!	!	!	!	!
=14-	=14-	=14-	=14-	=14-	=14-	=14-	=14-
2G\	-ueſ-	1r	.	4d\	no(n)	2b-\	-ueſ-
.	.	.	.	4B-/	ha-	.	.
4F\	-s'i	.	.	4c/	-ueſ-	4a\	-s'i
4E\	be-	.	.	4G/	-s'i	4g/	be-
2D/	-glioc-	4r	.	4B-/	be-	2f/	-glioc-
.	.	4f\	Chi	4.A/	-glioc-	.	.
4C/	-chi	4e\	non	.	.	4g/	-chi
.	.	.	.	8G/	-chi	.	.
4BB-/	da-	4d\	ha-	2G/	da-	4g/	da-
=15-	=15-	=15-	=15-	=15-	=15-	=15-	=15-
2AA/	-uan-	2c\	-ueſ-	.	.	2a\	-uan-
.	.	.	.	4F#X/	-uan-	.	.
2GG/	-ti	4B-y\	-s'i	2G/	-ti	2d/	-ti
.	.	4A/	begl-	.	.	.	.
4r	.	2G/	-ioc-	2d\	Chi	4r	.
4B-\	Chi	.	.	.	.	4d/	Chi
4A\	non	4F/	-chi	4d\	no(n)	4f/	no(n)
!	!	!LO:SIC:v:t=custos D	!	!	!	!	!
4G\	ha-	4E/	da-	4e\	ha-	4g/	ha-
!	!	!LO:LB:g=original	!	!	!	!	!
=16-	=16-	=16-	=16-	=16-	=16-	=16-	=16-
2F\	-ueſ-	2D/	-uan-	2f\	-ueſ	2a\	-ueſ-
4A\	-s'i	2C/	-ti	4.e\	s'i	4cc\	-s'i
4G\	be	.	.	.	.	4b-\	be-
.	.	.	.	8e\	begl'	.	.
2F\	glioc-	1r	.	4f\	oc-	2a\	-glioc-
.	.	.	.	4.c/	-chi	.	.
4E-X\	-chi	.	.	.	.	4g/	-chi
.	.	.	.	8G/	da-	.	.
4D/	da-	.	.	2B-/	-uan-	4f/	da-
=17-	=17-	=17-	=17-	=17-	=17-	=17-	=17-
!	!	!	!	!	!	!LO:SIC:v:t=custos d	!
1C	-uan-	1r	.	.	.	1e-X	-uan-
!	!	!	!	!	!	!LO:LB:g=original	!
.	.	.	.	8A/	.	.	.
.	.	.	.	8G/	.	.	.
!	!	!	!	!LO:SIC:v:t=custos b-	!	!	!
.	.	.	.	2A/	.	.	.
!	!	!	!	!LO:LB:g=original	!	!	!
!LO:SIC:v:t=custos G	!	!	!	!	!	!	!
1BB-	-ti	2r	.	2.B-/	.	2d/	-ti
!LO:LB:g=original	!	!	!	!	!	!	!
.	.	1B-\	O-	.	.	1dd\	O-
.	.	.	.	8A/	.	.	.
.	.	.	.	8G/	.	.	.
=18-	=18-	=18-	=18-	=18-	=18-	=18-	=18-
1r	.	.	.	1Fny	-ti	.	.
.	.	2A/	-ue	.	.	2cc\	-ue
1r	.	1d	la	2r	.	2b-\	la
.	.	.	.	1f\	O-	2.a\	ſtan-
=19-	=19-	=19-	=19-	=19-	=19-	=19-	=19-
1r	.	2.c\	ſtan-	.	.	.	.
.	.	.	.	.	.	4a\	-ca
.	.	.	.	2e\	-ue	1g	mia
.	.	4c\	-ca	.	.	.	.
1r	.	1B-	mia	1d	la	.	.
.	.	.	.	.	.	1f/	vi-
=20-	=20-	=20-	=20-	=20-	=20-	=20-	=20-
1r	.	1A	vi-	2.c/	ſtan-	.	.
.	.	.	.	.	.	1eny	-ta
.	.	.	.	4c/	-ca	.	.
2r	.	1G	-ta	2B-/	mia	.	.
2G\	s'ap-	.	.	2.B-/	vi-	2d/	s'ap-
=21-	=21-	=21-	=21-	=21-	=21-	=21-	=21-
2.G\	-pog-	1B-	s'ap-	.	.	0g	-pog-
.	.	.	.	4c/	-ta	.	.
.	.	.	.	2d\	s'ap-	.	.
4F\	.	.	.	.	.	.	.
1E-X	.	1c	-pog-	1G	-pog-	.	.
=22-	=22-	=22-	=22-	=22-	=22-	=22-	=22-
1D	-gia	1d	-gia	1A	-gia	1f#X	-gia
4G\	Qual	4B-\	Qual'	1r	.	1r	.
8G\	io	8B-\	io	.	.	.	.
8A\	gli	8c\	gli	.	.	.	.
4.B-\	vi-	4.d\	vi-	.	.	.	.
!	!	!LO:SIC:v:t=custos B-	!	!	!	!	!
8A\	di a	8c\	di a	.	.	.	.
!	!	!LO:LB:g=original	!	!	!	!	!
=23-	=23-	=23-	=23-	=23-	=23-	=23-	=23-
4G\	l'om-	4B-\	l'om-	1r	.	1r	.
4B-\	-bra	4d\	-bra	.	.	.	.
4A\	d'un	4c\	d'un	.	.	.	.
4G\	bel	4B-\	bel	.	.	.	.
2F#X\	ve-	2A/	ve-	2r	.	2r	.
2G\	-lo	2G/	-lo	4d\	Qual	4b-\	Qual
.	.	.	.	8d\	io	8b-\	io
.	.	.	.	8e\	gli	8cc\	gli
=24-	=24-	=24-	=24-	=24-	=24-	=24-	=24-
1r	.	2r	.	4.f\	vi-	4.dd\	vi-
.	.	.	.	8e\	di a	8cc\	di a l'-
.	.	2B-\	E	4d\	l'om-	4b-\	-om-
!	!	!	!	!LO:SIC:v:t=custos a	!	!	!
.	.	.	.	4b-\	-bra	4dd\	-bra
!	!	!	!	!LO:LB:g=original	!	!	!
1r	.	2c\	ſi	4a\	d'un	4cc\	d'u(n)
.	.	.	.	4g\	bel	4b-\	bel
!	!	!	!	!	!	!LO:SIC:v:t=custos g	!
.	.	2d\	co-	2f#X\	ve-	2a\	ve-
!	!	!	!	!	!	!LO:LB:g=original	!
=25-	=25-	=25-	=25-	=25-	=25-	=25-	=25-
!	!	!	!	!	!	!LO:TX:t=P:problem:bemol przy kluczu mylnie przeszkoczył na 3 linię	!
2r	.	4G/	-me	4g\	-lo	2g/	-lo
.	.	4A/	di	8fny\	.	.	.
.	.	.	.	8e\	.	.	.
!LO:SIC:v:t=custos F	!	!	!	!	!	!	!
2G\	E	4B-\	lor	2d\	.	4r	.
!LO:LB:g=original	!	!	!	!	!	!	!
.	.	4G/	bel-	.	.	4b-\	E
2Fny\	ſi	4A/	-lez-	1r	.	2cc\	ſi
.	.	2c\	ze il	.	.	.	.
2D/	co-	.	.	.	.	2dd\	co-
!	!	!LO:N:acc=#	!	!	!	!	!
.	.	4Bn\	cie-	.	.	.	.
=26-	=26-	=26-	=26-	=26-	=26-	=26-	=26-
2C/	-me	2c\	-lo	2r	.	4g/	-me
.	.	.	.	.	.	4a\	di
2r	.	4r	.	2g\	E	4b-\	lor
!	!	!LO:SIC:v:t=custos F	!	!	!	!	!
.	.	4c\	Sple(n)-	.	.	4g/	bel-
!	!	!LO:LB:g=original	!	!	!	!	!
1r	.	8F/	-dea	2f\	ſi	4a\	-lez-
.	.	8G/	.	.	.	.	.
.	.	8A/	.	.	.	2cc\	ze il
.	.	8F/	.	.	.	.	.
.	.	4.G/	.	2d\	co-	.	.
!	!	!	!	!	!	!LO:N:acc=#	!
.	.	.	.	.	.	4bn\	cie-
.	.	8G/	quel	.	.	.	.
=27-	=27-	=27-	=27-	=27-	=27-	=27-	=27-
2r	.	2C/	dì	4c/	-me	2cc\	-lo
.	.	.	.	4d\	di	.	.
2AA/	E	2c\	E	4e\	lor	4r	.
.	.	.	.	4c/	bel-	4a\	E
2BB-/	ſi	2B-y\	ſi	4d\	-lez-	2fny/	ſi
.	.	.	.	2f\	ze il	.	.
2C/	co-	2G/	co-	.	.	2cc\	co-
.	.	.	.	4e\	cie-	.	.
=28-	=28-	=28-	=28-	=28-	=28-	=28-	=28-
2FF/	-me	4F/	-me	2f\	-lo	4a\	-me
.	.	4G/	di	.	.	4b-y\	di
2F\	E	4A/	lor	4r	.	4cc\	lor
.	.	4F/	bel-	4c/	E	4a\	bel-
2E-X\	ſi	4G/	-lez-	2e-X\	ſi	4b-\	-lez-
.	.	2B-\	ze il	.	.	4g/	ze il
!	!	!	!	!LO:SIC:v:t=custos d	!	!LO:SIC:v:t=custos dd	!
2C/	co-	.	.	2e-\	co-	2cc\	cie-
!	!	!	!	!LO:LB:g=original	!	!LO:LB:g=original	!
.	.	4A/	cie-	.	.	.	.
=29-	=29-	=29-	=29-	=29-	=29-	=29-	=29-
4BB-/	-me	1B-	-lo	4d\	-me	2dd\	-lo
4C/	di	.	.	4eny\	di	.	.
4D/	lor	.	.	4f\	lor	4r	.
4BB-/	bel-	.	.	4d\	bel-	4dd\	Splen-
!	!	!LO:SIC:v:t=custos d	!	!	!	!	!
4C/	-lez-	1r	.	4e\	-lez-	8g\	-de-
!	!	!LO:LB:g=original	!	!	!	!	!
.	.	.	.	.	.	8a\	-a
4GG/	ze il	.	.	2g\	ze il	8b-\	.
.	.	.	.	.	.	8g\	.
2D/	cie-	.	.	.	.	4.a\	.
.	.	.	.	4f#X\	cie-	.	.
.	.	.	.	.	.	8a\	quel
=30-	=30-	=30-	=30-	=30-	=30-	=30-	=30-
1GG	-lo	4r	.	2g\	-lo	2b-\	dì
.	.	4d\	Sple(n)-	.	.	.	.
.	.	8G/	-dea	4r	.	4r	.
.	.	8A/	.	.	.	.	.
.	.	8B-\	.	4g\	Sple(n)-	4dd\	Sple(n)-
.	.	8G/	.	.	.	.	.
1r	.	4.A/	.	4.e\	-dea	4.cc#X\	-dea
.	.	8A/	quel	8e\	quel	8cc#\	quel
.	.	2D/	dì	2d\	dì	2dd\	dì
=31-	=31-	=31-	=31-	=31-	=31-	=31-	=31-
!LO:SIC:v:t=custos D	!	!	!	!	!	!	!
1D	co-	2r	.	2r	.	2r	.
!LO:LB:g=original	!	!	!	!	!	!	!
.	.	2A/	co-	2d\	co-	2f/	co-
2D/	-ſi	2A/	-ſi	2d\	-ſi	2f/	-ſi
2D/	ba-	2A/	ba-	2d\	ba-	2f/	ba-
=32-	=32-	=32-	=32-	=32-	=32-	=32-	=32-
2C/	-gna-	2c\	-gna-	2e\	-gna-	2g/	-gna-
2F\	ti an-	2c\	ti an-	2fny\	ti an-	2a\	ti an-
1BB-	-cho-	1d	-cho-	1f	-cho-	1b-	-cho-
=33-	=33-	=33-	=33-	=33-	=33-	=33-	=33-
1F	-ra,	2c\	-ra	4f\	-ra	4a\	-ra
!	!	!	!	!	!	!LO:SIC:v:t=custos a	!
.	.	.	.	4a\	Li	4ccny\	Li
!	!	!	!	!	!	!LO:LB:g=original	!
.	.	2F/	co-	4f\	veg-	4a\	veg-
!	!	!	!	!LO:SIC:v:t=custos a	!	!	!
.	.	.	.	4a\	-gio	4cc\	-gio
!	!	!	!	!LO:LB:g=original	!	!	!
1r	.	2F/	-ſi	4.a\	sfa-	4.cc\	sfa-
.	.	.	.	8g\	-uil-	8b-\	-uil-
.	.	2F/	ba-	4f\	-lar	4a\	-lar
.	.	.	.	4f\	ond'	4a\	ond'-
=34-	=34-	=34-	=34-	=34-	=34-	=34-	=34-
1r	.	2G/	-gna-	4e\	io	4g/	-io
.	.	.	.	4d\	ſem-	4f/	ſem-
!	!	!LO:SIC:v:t=custos B-	!	!	!	!	!
.	.	2A/	ti an-	2c#X/	-pr'ar-	2e/	-pr'ar-
!	!	!LO:LB:g=original	!	!	!	!	!
1r	.	1B-	-cho-	1d	-do	4d/	-do
.	.	.	.	.	.	4dd\	Li
.	.	.	.	.	.	4b-\	veg-
.	.	.	.	.	.	4dd\	-gio
=35-	=35-	=35-	=35-	=35-	=35-	=35-	=35-
2r	.	4A/	-ra	4r	.	4.cc\	sfa-
.	.	4c\	Li	4a\	Li	.	.
.	.	.	.	.	.	8b-\	-uil-
2F\	co-	4d\	veg-	4f\	veg-	2a\	-lar
.	.	4c\	-gio	4a\	-gio	.	.
2F\	-ſi	4.c\	sfa-	4.a\	sfa-	2r	.
.	.	8B-\	-uil-	8g\	-uil-	.	.
2F\	ba-	4A/	-lar	2f\	-lar	4r	.
.	.	4f\	ond'	.	.	4a\	ond'-
=36-	=36-	=36-	=36-	=36-	=36-	=36-	=36-
2G\	-gna-	4e\	io	2r	.	4g/	-in
.	.	4d\	ſem-	.	.	4f/	se(m)-
2A\	ti an-	2c#X\	-pr'ar-	4r	.	2e/	-pr'ar-
.	.	.	.	4a\	Li	.	.
1B-	-cho-	4d\	-do	4f\	veg-	1d	-do
.	.	4f\	Li	4d\	-gio	.	.
.	.	4B-\	veg-	4.f\	sfa-	.	.
.	.	4d\	-gio	.	.	.	.
!	!	!	!	!LO:SIC:v:t=custos a	!	!	!
.	.	.	.	8g\	-uil-	.	.
!	!	!	!	!LO:LB:g=original	!	!	!
=37-	=37-	=37-	=37-	=37-	=37-	=37-	=37-
4A\	-ra	4.cny\	sfa-	4a\	-lar	2r	.
*	*	*	*	*	*ij	*	*
4F\	Li	.	.	4A/	Li	.	.
.	.	8c\	-uil-	.	.	.	.
!	!	!	!	!	!	!LO:SIC:v:t=custos f	!
4D/	veg-	4d\	-lar	4B-/	veg-	2f/	co-
!LO:SIC:v:t=custos F	!	!LO:SIC:v:t=custos c	!	!	!	!LO:LB:g=original	!
4F\	-gio	4c\	on	4A/	-gio	.	.
!LO:LB:g=original	!	!LO:LB:g=original	!	!	!	!	!
4.F\	sfa-	2c\	d'io	4.A/	sfa-	2f/	-ſi
8Eny\	-uil-	.	.	8G/	-uil-	.	.
4D/	-lar,	4B-\	ſem-	4F/	-lar	2f/	ba-
*	*	*	*	*	*Xij	*	*
4D/	ond'	4.A/	-pr'ar-	4f\	ond'	.	.
=38-	=38-	=38-	=38-	=38-	=38-	=38-	=38-
4C/	io	.	.	4e\	io	2g/	-gna-
.	.	8G/	.	.	.	.	.
4BB-/	ſem-	2G/	.	4d\	ſem-	.	.
2AA/	-pr'ar-	.	.	2c/	-pr'ar-	2a\	ti an-
.	.	4F#X/	.	.	.	.	.
4GG/	-do	1G	-do	4.B-/	-do	1b-	-cho-
4G\	Li	.	.	.	.	.	.
.	.	.	.	8c/	.	.	.
4B-\	veg-	.	.	2d\	.	.	.
4G\	-gio	.	.	.	.	.	.
=39-	=39-	=39-	=39-	=39-	=39-	=39-	=39-
4.D/	sfa-	2r	.	2r	.	4a\	-ra
.	.	.	.	.	.	4f/	Li
8C/	-uil-	.	.	.	.	.	.
2BB-/	-lar	2B-\	co-	2f\	co-	4d/	veg-
.	.	.	.	.	.	4f/	-gio
1r	.	2B-\	-ſi	2d\	-ſi	4.f/	sfa-
.	.	.	.	.	.	8e/	-uil-
.	.	2B-\	ba-	2f\	ba-	4d/	-lar
.	.	.	.	.	.	4dd\	ond'-
=40-	=40-	=40-	=40-	=40-	=40-	=40-	=40-
1r	.	2c\	-gna-	2e\	-gna-	4cc\	-io
.	.	.	.	.	.	4b-\	ſem-
.	.	2d\	ti an-	2f\	ti an-	2a\	-pr'ar-
1r	.	1e-X	-cho-	1g	-cho-	4g/	-do
.	.	.	.	.	.	4b-\	Li
.	.	.	.	.	.	4g/	veg-
.	.	.	.	.	.	4b-\	-gio
=41-	=41-	=41-	=41-	=41-	=41-	=41-	=41-
1BB-	co-	4d\	-ra	4f\	-ra	4.b-\	sfa-
.	.	4f\	Li	4d\	Li	.	.
.	.	.	.	.	.	8cc\	-uil-
!	!	!	!	!	!	!LO:SIC:v:t=custos dd	!
.	.	4d\	veg-	4B-/	veg-	2dd\	-lar
!	!	!	!	!	!	!LO:LB:g=original	!
!	!	!LO:SIC:v:t=custos f	!	!LO:SIC:v:t=custos d	!	!	!
.	.	4f\	-gio	4d\	-gio	.	.
!	!	!LO:LB:g=original	!	!LO:LB:g=original	!	!	!
2BB-/	-ſi	4.f\	sfa-	4.d\	sfa-	1r	.
.	.	8eny\	-uil-	8c/	-uil-	.	.
!LO:SIC:v:t=custos C	!	!	!	!	!	!	!
2BB-/	ba-	4d\	-lar	4B-/	-lar	.	.
!LO:LB:g=original	!	!	!	!	!	!	!
.	.	4d\	ond'	4f\	ond'	.	.
=42-	=42-	=42-	=42-	=42-	=42-	=42-	=42-
2C/	-gna-	4c\	io	4a\	io	2r	.
.	.	4B-\	ſem-	4g\	ſem-	.	.
2D/	ti an-	2A/	-pr'ar-	2f#X\	-pr'ar-	4r	.
.	.	.	.	.	.	4dd\	Li
1E-X	-cho-	1G	-do	1g	-do	4b-\	veg-
.	.	.	.	.	.	4g/	-gio
.	.	.	.	.	.	4.b-\	sfa-
.	.	.	.	.	.	8cc\	-uil-
=43-	=43-	=43-	=43-	=43-	=43-	=43-	=43-
4D/	-ra	2r	.	4r	.	2dd\	-lar
4B-\	Li	.	.	4d\	Li	.	.
4G\	veg-	4r	.	4B-/	veg-	4r	.
4B-\	-gio	4f\	Li	4d\	-gio	4dd\	Li
4.B-\	sfa-	4d\	veg-	4.d\	sfa-	4b-\	veg-
.	.	4f\	-gio	.	.	4dd\	-gio
8c\	-uil-	.	.	8c/	-uil-	.	.
4d\	-lar	4.f\	sfa-	4B-/	-lar	4.dd\	sfa-
4D/	ond'	.	.	2d\	ond'	.	.
.	.	8e\	-uil-	.	.	8cc\	-uil-
=44-	=44-	=44-	=44-	=44-	=44-	=44-	=44-
2G\	io	4d\	-lar	.	.	4b-\	-lar
.	.	4d\	ond'	4g\	io	4b-\	ond'-
2C/	ſem-	4c\	io	2e-X\	ſem-	4a\	-io
.	.	4B-\	ſem-	.	.	2g/	ſem-
1D	-pr'ar-	1A	-pr'ar-	1d	-pr'ar-	.	.
.	.	.	.	.	.	8f/	-pr'ar-
.	.	.	.	.	.	8e/	.
.	.	.	.	.	.	2f#X/	.
=45-	=45-	=45-	=45-	=45-	=45-	=45-	=45-
!LO:TX:b:t=N 2	!	!LO:TX:b:t=E 2	!	!LO:TX:b:t=I 2	!	!LO:TX:b:t=A 2	!
0GG	-do.	0G	-do.	0d	-do.	0g	-do.
=-	=-	=-	=-	=-	=-	=-	=-
*-	*-	*-	*-	*-	*-	*-	*-
!!!system-decoration: [(s1,s2,s3,s4)]
!!!ENC: Mateusz Solarz
!!!END: 2022-06-25
!!!ENC: Julita Ruszuk
!!!END: 2022-07-08
